app/dist/common/images/china-xd-electric.svg

<svg height="18" viewBox="0 0 18 18" width="18" xmlns="http://www.w3.org/2000/svg"><path d="m0 0h18v18h-18z" fill="#f0f3fa"/><g fill="#da251d"><path d="m5.91 5h-1.91l1.76 4-1.76 4h1.91l.74-1.86.73 1.86h.74l.59-3.71h-1.18l1.76-4.29h-1.89l-.74 1.86-.76-1.86z"/><path d="m9.3 5h2.94c.58 0 1.76.34 1.76 1.71v4.58c0 .57-.3 1.71-1.47 1.71h-4.26l1.9-4.86h-1.31zm1.76 1.71v4.58h.59c.2 0 .59-.12.59-.58v-3.41c0-.2-.1-.58-.45-.58h-.73z"/></g></svg>

<!-- by TradingView --><svg width="18" height="18" viewBox="0 0 18 18" xmlns="http://www.w3.org/2000/svg"><path fill="#F0F3FA" d="M0 0h18v18H0z"/><path d="M5.91 5H4l1.76 4L4 13h1.91l.74-1.86.73 1.86h.74l.59-3.71H7.53L9.29 5H7.4l-.74 1.86L5.9 5Z" fill="#DA251D"/><path d="M9.3 5h2.94c.58 0 1.76.34 1.76 1.71v4.58c0 .57-.3 1.71-1.47 1.71H8.27l1.9-4.86H8.86L9.3 5Zm1.76 1.71v4.58h.59c.2 0 .59-.12.59-.58V7.3c0-.2-.1-.58-.45-.58h-.73Z" fill="#DA251D"/></svg>
